X: 1
T: Ridee
M: 6/4
L: 1/8
R: Larid  Six Temps
K: Bmin
|: Bf fB f2 ef gf ed | cB cd ef e2 ce dc :|
[M:1/4] B2 | fB cd B2 gB cd B2 | AB cd ed ce dc cB |
fB cd B2 gB cd B2 | [M:5/4] AB cd ed ce dc ||
